X:79
T: WOHL HEUTE NOCH UND MORGEN
N: Z0079
O: Europa, Mitteleuropa, Deutschland
R: Sagen - Lied, Romanze, Tod
M: 6/4
L: 1/4
K: E
E | =c2BA2B | F3E2
B | e2=gf2e | B3
B3 | =d2AB2d | B2A=G2
B | e2=gf2e | d3-d2
B | =G2BF2E | E3E2

@@@ Tune index: 9837
